!!!!SEGMENT: pl-wnifc--6800-n_lubomirski-kazimierz--u-nas-inaczej-chant-d-oukraine-op-15.krn
!!!cenid: 18xx:3975
!!!COM: Lubomirski, Kazimierz
!!!COM-rismID: pe30107516
!!!CDT: 1813-1871
!!!CNT:
!!!OTL: U nas inaczej/Chant d’Oukraine op. 15
!!!PDT:
!!!AGN:
!!!SMS-siglum: PL-Wnifc
!!!SMS-shelfmark: 6800/n
!!!SMS-shelfwork: W
!!!SMS-variant:
!!!SMS-altvar:
!!!NIFC-rismSourceID: 1001158200
!!!NIFC-rismChildID: 1001158200
!!!NIFC-islandoraID: nifc:213546
!!!URL-pdf-islandora: https://repozytorium.nifc.pl/islandora/object/nifc%3A213546/datastream/PDF/view
!!!URL-scan: https://polish.musicsources.pl/pl/lokalizacje/galeria/druki-muzyczne/16920 @EN{Scan on Polish Music Sources Website} @PL{Skany w portalu Dziedzictwo Muzyki Polskiej w otwartym dostępie}
!!!ONB-nifc:
!!!AIN: 2 piano
!!!key: e
**kern	**kern	**dynam	**kern	**kern	**dynam
*part2	*part2	*part2	*part1	*part1	*part1
*staff4	*staff3	*	*staff2	*staff1	*
*I"Secondo.	*I"Secondo.	*	*I"Primo.	*I"Primo.	*
*Ipiano	*Ipiano	*	*Ipiano	*Ipiano	*
*ICklav	*ICklav	*	*ICklav	*ICklav	*
*clefF4	*clefF4	*	*clefG2	*clefG2	*
*k[f#]	*k[f#]	*	*k[f#]	*k[f#]	*
*e:	*e:	*	*e:	*e:	*
*M4/4	*M4/4	*	*M4/4	*M4/4	*
*met(c)	*met(c)	*	*met(c)	*met(c)	*
=1	=1	=1	=1	=1	=1
*	*clefG2	*	*	*	*
!	!LO:TX:a:B:t=Andantino.	!	!	!LO:TX:a:B:t=Andantino.	!
(8EE/L	4e 4B 4G/	p	4g/	4ee 4b\	p
8BB/	.	.	.	.	.
8E/	8.eL 8.B 8.G/	.	8.g/L	8.ggL 8.b\	.
8BB/J)	.	.	.	.	.
.	16eJk 16B 16G/	.	16g/Jk	16ff#Jk 16b\	.
(8EE/L	2e 2B 2G/	.	2g/	2ee 2b\	.
8BB/	.	.	.	.	.
8E/	.	.	.	.	.
8BB/J)	.	.	.	.	.
=2	=2	=2	=2	=2	=2
(8AAL 8EE/	8f# 8d#X [8A/	.	8ccL 8a/	8cccL 8ff# 8dd#X\	.
8C/	4.f# 4.d# 4.A/]	.	8cc/	8ccc\	.
8D#X/	.	.	8b/	8bb\	<
8C/J)	.	.	8a/J	8aa\J	.
(8EE/L	4e 4B/	<	4b 4g/	4gg 4ee\	.
8BB/	.	.	.	.	.
8E/	4e 4B 4G/	[[	4ee 4b 4g\	4eee 4bb 4gg 4ee\	[[
8BB/J)	.	.	.	.	.
=3	=3	=3	=3	=3	=3
*	*	*	*	*8va	*
4E 4EE/	4g#X 4e 4d 4B/	.	4dd 4b\	4eee 4bb 4gg#X 4ee/	.
8.GG#XL 8.GGG#X/	8.eL 8.d 8.B/	>	8.eeL 8.dd 8.b\	8.eee 8.ddd 8.bb\L	.
16GG#Jk 16GGG#/	16eJk 16d 16B/	.	16eeJk 16dd 16b\	16eeeJk 16ddd 16bb\	>
4AA 4AAA/	4e 4c 4A/	.	8.cc\L	8.eeeL 8.ccc 8.aa 8.ee\	.
.	.	.	16eeJk 16cc\	16eeeJk 16ccc\	.
4AA 4AAA/	4r	]	16ddLL 16b/	16dddLL 16bb/	.
.	.	.	16cc 16a/	16ccc 16aa/	.
.	.	.	16b 16gn/	16bb 16ggn/	.
.	.	.	16aJJ 16f#/	16aaJJ 16ff#/	]
*	*	*	*	*X8va	*
=4	=4	=4	=4	=4	=4
8BB 8BBB/	8e 8B 8G/	p	8g/L	8ggL 8ee\	p
8r	8r	.	8b/	8bb\	.
8BB 8BBB/	8d#X 8B/	.	8f#/	8ff# 8dd#X\	.
8r	8r	.	8b/J	8bb\J	.
(8EE/L	2e 2B 2G/	.	2b 2g/	2ee\	.
8BB/	.	.	.	.	.
8E/	.	.	.	.	.
8BB/J)	.	.	.	.	.
*	*clefF4	*	*	*	*
!LO:LB:g=original	!LO:LB:g=original	!	!LO:LB:g=original	!LO:LB:g=original	!
=5||	=5||	=5||	=5||	=5||	=5||
!	!	!	!	!	!LO:DY:t=p dolce
2EE/	8r	p	1r	4e/	p
.	8BL 8G 8E\	.	.	.	.
.	8B 8G 8E\	.	.	8g/L	.
.	8BJ 8G 8E\	.	.	8e/J	.
2EE/	8r	.	.	4.cc\	.
.	8cL 8A 8E\	.	.	.	.
.	8c 8A 8E\	.	.	.	.
.	8cJ 8A 8E\	.	.	8cc\	.
=6	=6	=6	=6	=6	=6
8EE/L	8BL 8G 8E\	.	8e/L	8b/L	>
8AA/	8c 8A\	.	8e/	8a/	.
8BB/	8B 8G\	>	8e/	8g/	.
8BBJ 8BBB/	8BJ 8A\	.	8d#X/J	8f#/J	.
2EE/	8r	.	2r	8f#/L	.
.	8BL 8G 8E\	.	.	16e/Jk	]]
.	.	.	.	16r	.
.	8B 8G 8E\	.	.	4r	.
.	8BJ 8G 8E\	]	.	.	.
=7	=7	=7	=7	=7	=7
2G 2GG/	8r	.	1r	4g/	.
.	8dL 8B\	<	.	.	.
.	8d 8B\	.	.	8b/L	<
.	8dJ 8B\	.	.	8g/J	.
4.D 4.DD/	8r	.	.	4.dd\	.
.	8f#L 8d 8A\	.	.	.	.
.	8f# 8d 8A\	.	.	.	.
8BB 8BBB/	8f#J 8d#X 8A\	[	.	8dd#X\	[
=8	=8	=8	=8	=8	=8
8EL 8EE/	8eL 8B 8G\	>	8g/L	8ee\L	.
8AAJ 8AAA/	8eJ 8c 8A\	.	8f#/J	8cc\J	>
4BB 4BBB/	4d#X 4A\	.	4r	8f#/L	.
.	.	.	.	8b/J	.
2E 2EE/	8r	.	2r	8f#/L	.
.	8BL 8G\	.	.	8e/J	]
.	8B 8G\	]	.	4r	.
.	8BJ 8G\	.	.	.	.
=9	=9	=9	=9	=9	=9
2G 2GG/	8r	.	1r	4dd\	.
.	8dL 8B\	.	.	.	.
.	8d 8B\	.	.	8cc#X\L	.
.	8dJ 8B\	.	.	8b\J	.
2F# 2FF#/	8r	.	.	4.a/	.
.	8dL 8A\	.	.	.	.
.	8d 8A\	.	.	.	.
.	8dJ 8A\	.	.	8a/	.
!LO:LB:g=original	!LO:LB:g=original	!	!LO:LB:g=original	!LO:LB:g=original	!
=10	=10	=10	=10	=10	=10
*	*^	*	*	*	*
!	!LO:TX:b:i:t=marcato	!	!	!	!	!
2E 2EE/	(8d/L	2A\	<	(2g/	8a/L	<
.	8c#X/	.	.	.	8a/	.
.	8B/	.	.	.	8b/	.
.	8A/J)	.	[	.	8cc#X/J	[
2D 2DD/	8r	2ryy	.	4f#/)	4dd\	>
.	8dL 8A 8F#\	.	>	.	.	.
.	8A 8F#\	.	.	4r	8d/	]
.	8AJ 8F#\	.	]	.	8r	.
*	*v	*v	*	*	*	*
=11	=11	=11	=11	=11	=11
4BB-X 4BBB-X/	4d 4B-X 4Fn\	.	4fn/	4dd\	.
4D 4DD/	4B- 4F\	.	4f/	8b-X\L	.
.	.	.	.	8dd\J	<
2FFn/	2c 2A 2F\	.	2f/	4.ffn\	.
.	.	.	.	8ff\	[
=12	=12	=12	=12	=12	=12
4GG 4GGG/	4d 4B-X\	.	4g/	8b-X/L	.
.	.	.	.	8b-/	.
4BB-X 4BBB-X/	4d 4G\	.	4r	8g/	>
.	.	.	.	8b-/J	.
2D 2DD/	2d 2A\	.	2f#X/	4dd\	.
.	.	.	.	4dd\	]
=13	=13	=13	=13	=13	=13
4GG 4GGG/	4B-X 4G\	.	4d/	4g/	.
4GG 4GGG/	4B- 4G\	.	4d/	8g/L	.
.	.	.	.	8g/J	.
2D 2DD/	2A 2Fn\	.	2d/	4fn/	.
.	.	.	.	4f/	.
=14	=14	=14	=14	=14	=14
*	*^	*	*	*	*
2BB-X 2BBB-X/	4d/	2G#X 2D\	.	2r	8.fn/L	.
.	.	.	.	.	16f/Jk	.
.	4r	.	.	.	8e/L	.
.	.	.	.	.	8d/J	.
2AA 2AAA;/	2c#X 2A 2E;\	2ryy	.	4e;/	4a;/	.
.	.	.	.	4r	4a/	.
*	*v	*v	*	*	*	*
!LO:LB:g=original	!LO:LB:g=original	!	!LO:LB:g=original	!LO:LB:g=original	!
=15	=15	=15	=15	=15	=15
*	*	*	*^	*	*
!	!	!LO:DY:t=f più vivo ed energico	!	!	!	!LO:DY:t=f più vivo ed energico
4D 4DD/	4f#X 4d 4A\	f	4r	4ryy	4dd\	f
4D 4DD/	4g 4d 4B\	.	8.b\L	8.ryy	8.bb\L	.
.	.	.	16b\Jk	16ryy	16bb\Jk	.
2D 2DD/	2f# 2d 2A\	.	4a/	2a\	4aa\	.
.	.	.	4dd/	.	4ddd\	.
=16	=16	=16	=16	=16	=16	=16
4D 4DD/	4f# 4d 4A\	.	4r	2ryy	8.dd\L	.
.	.	.	.	.	16dd\Jk	.
4D 4DD/	4g 4d 4B\	.	8b\L	.	8bb\L	.
.	.	.	8b\J	.	8bb\J	.
2D 2DD/	2f# 2d 2A\	.	4a/	2a\	4aa\	.
.	.	.	4dd/	.	4ddd\	.
*	*	*	*v	*v	*	*
=17	=17	=17	=17	=17	=17
4D 4DD/	4f# 4d 4A\	.	4dd\	4ddd\	.
4BB 4BBB/	4f# 4d#X 4A\	.	8.dd#X\L	8.ddd#X\L	.
.	.	.	16dd#\Jk	16ddd#\Jk	.
4E 4EE/	4g 4e 4B 4G^<\	.	4ee\	4eee^<\	.
4r	8e\L	.	4r	8ee\L	.
.	16r	.	.	16r	.
.	16e\Jk	.	.	16ee\Jk	.
=18	=18	=18	=18	=18	=18
4C 4CC/	4g 4e 4c 4G^<\	.	4ee\	4eee^<\	.
4r	8e\L	.	4r	8ee\L	.
.	16r	.	.	16r	.
.	16e\Jk	.	.	16ee\Jk	.
2AA 2AAA/	2f# 2e 2c 2A^<\	.	4ee\	4eee^<\	.
.	.	.	4r	8ee\	.
.	.	.	.	8r	.
=19	=19	=19	=19	=19	=19
4BB 4BBB/	4g 4e 4B\	ff	4b\	4bb\	ff
!	!	!	!	!LO:N:vis=8	!
4BB 4BBB/	4f# 4d#X 4B 4A\	.	8.b\L	8.bb\L	.
.	.	.	16b\Jk	16bb\Jk	.
!	!LO:TX:b:i:t=rall.	!	!	!LO:TX:b:i:t=rall.	!
(8EE/L	2e 2B 2G\	.	2r	8ee\L	.
8BB/	.	.	.	8ee\J	.
8E/	.	.	.	4r	.
8BB/J)	.	.	.	.	.
!LO:LB:g=original	!LO:LB:g=original	!	!LO:LB:g=original	!LO:LB:g=original	!
=20	=20	=20	=20	=20	=20
!	!LO:TX:a:B:t=Tempo I.	!	!	!LO:TX:a:B:t=Tempo I.	!
(8BBB/L	2f# 2B 2A\	mf	2b 2a/	4ff#\	mf
8BB/	.	.	.	.	.
8D#X/	.	.	.	8gg\L	.
8BB/J)	.	.	.	8ff#\J	.
(8EE/L	2e 2B 2G\	.	2b 2g/	4ee\	.
8BB/	.	.	.	.	.
8E/	.	.	.	4bb\	.
8BB/J)	.	.	.	.	.
=21	=21	=21	=21	=21	=21
*	*	*	*	*^	*
(8BBB/L	2f# 2B 2A\	.	2b 2a/	8ff#\L	2ryy	.
8BB/	.	.	.	16gg\L	.	.
.	.	.	.	16aa\JJ	.	.
8D#X/	.	.	.	8gg\L	.	.
8BB/J)	.	.	.	8ff#\J	.	.
(8EE/L	2e 2B 2G\	.	4.b 4.g/	(4ee/	4.ee\	.
8BB/	.	.	.	.	.	.
8E/	.	.	.	8eee/)	.	.
8BB/J)	.	.	8r	8r	8ryy	.
*	*	*	*	*v	*v	*
=22	=22	=22	=22	=22	=22
8EL 8EE/	8eL 8B 8G\	.	8bL 8g/	8eeeL 8ee\	.
8D 8DD/	8e 8B 8G#X\	.	8b 8g#X/	8fffn 8ffn\	.
8C 8CC/	8e 8A 8E\	.	8cc/	8eee 8ee\	.
8BBJ 8BBB/	8dJ 8G# 8E\	.	8b/J	8dddJ 8dd\	.
4AA 4AAA/	4c 4A 4E\	.	4a/	4ccc 4cc\	.
4FFn 4FFFn/	4fn 4c 4A 4Fn\	.	4cc 4a/	4ccc 4aa 4ff\	.
=23	=23	=23	=23	=23	=23
8DD 8DDD/	8BL 8A 8Fn\	.	8bL 8a 8fn\	8bbL 8aa 8ffn\	.
8r	8fn\J	.	8ffn\J	8fffn\J	.
4EE 4EEE/	4e 4B 4G#X 4E\	.	8eeL 8b 8g#X\	8eeeL 8bb 8gg#X\	.
.	.	.	8ddJ 8b\	8gg#J 8ee\	.
2AA 2AAA;/	2e 2c 2A 2E;\	.	2cc 2a;/	2aa 2ee;\	.
!LO:PB:g=original	!LO:PB:g=original	!	!LO:PB:g=original	!LO:PB:g=original	!
=24	=24	=24	=24	=24	=24
(8qqAAA/	.	.	.	.	.
*	*	*	*	*rscale:2	*
*	*	*	*	*cue	*
*	*	*	*	*Xtuplet	*
!	!	!	!	!LO:TX:b:i:t=Cadenza.	!
2AAA;/)	2AA;/	.	4ra>	(40A</LL	.
.	.	.	.	40c</	.
.	.	.	.	40e</	.
.	.	.	.	40a</JJ	.
.	.	.	.	40cc\LL	.
.	.	.	.	40ee\	.
.	.	.	.	40aa\	.
.	.	.	.	40ccc\	.
*	*	*	*	*8va	*
.	.	.	.	40eee\	.
.	.	.	.	40aaa\JJ	.
*	*	*	*	*Xcue	*
*	*	*	*	*rscale:1	*
.	.	.	4r;	4cccc;\)	.
(8qqBBB/	.	.	.	.	.
*	*	*	*	*X8va	*
*	*	*	*clefF4	*rscale:2	*
*	*	*	*	*cue	*
2BBB;/)	2BB;/	.	4rb>	(60D#X<\LL	.
.	.	.	.	60F#X<\	.
.	.	.	.	60A<\	.
.	.	.	.	60B<\JJ	.
.	.	.	.	60d#X/LL	.
.	.	.	.	60f#X/	.
.	.	.	.	60a/	.
.	.	.	.	60b/JJ	.
.	.	.	.	60dd#X\LL	.
.	.	.	.	60ff#\	.
.	.	.	.	60aa\	.
.	.	.	.	60bb\	.
*	*	*	*	*8va	*
.	.	.	.	60ddd#X\	.
.	.	.	.	60fff#\	.
.	.	.	.	60aaa\JJ	.
*	*	*	*	*Xcue	*
*	*	*	*	*rscale:1	*
.	.	.	4r;	4bbb;\)	.
*	*	*	*clefG2	*X8va	*
=25	=25	=25	=25	=25	=25
2EE/	8r	p	4e/	4ee\	p
.	8BL 8G 8E\	.	.	.	.
.	8B 8G 8E\	.	8g/L	8gg\L	.
.	8BJ 8G 8E\	.	8e/J	8ee\J	.
2EE/	8r	.	4.cc\	4.ccc\	.
.	8cL 8A 8E\	.	.	.	.
.	8c 8A 8E\	.	.	.	.
.	8cJ 8A 8E\	.	8cc\	8ccc\	.
=26	=26	=26	=26	=26	=26
8EE/L	8BL 8G 8E\	.	8bL 8e/	8bbL 8ee\	>
8AA/	8c 8A\	.	8a 8e/	8aa 8ee\	.
8BB/	8B 8G\	>	8g 8e/	8gg 8ee\	.
8BBJ 8BBB/	8BJ 8A\	.	8f#J 8d#X/	8ff#J 8dd#X\	.
2EE/	8r	.	8f#/L	8ff#\L	.
.	8BL 8G 8E\	.	16e/Jk	16ee\Jk	.
.	.	.	16r	16r	.
.	8B 8G 8E\	.	4r	4r	]]
.	8BJ 8G 8E\	]	.	.	.
=27	=27	=27	=27	=27	=27
2G 2GG/	8r	.	4g/	4gg\	<
.	8dL 8B\	.	.	.	.
.	8d 8B\	<	8b/L	8bb\L	.
.	8dJ 8B\	.	8g/J	8gg\J	.
4.D 4.DD/	8r	.	4.dd\	4.ddd\	.
.	8f#L 8d 8A\	.	.	.	.
.	8f# 8d 8A\	.	.	.	.
8BB 8BBB/	8f#J 8d#X 8A\	[	8dd#X\	8ddd#X\	[
!	!	!	!LO:LB:g=original	!LO:LB:g=original	!
=28	=28	=28	=28	=28	=28
8EL 8EE/	8eL 8B 8G\	>	8ee\L	8eee\L	>
8AAJ 8AAA/	8eJ 8c 8A\	.	8cc\	8ccc\	.
4BB 4BBB/	4d#X 4A\	.	8f#\	8ff#\	.
.	.	.	8b\J	8bb\J	.
2E 2EE/	8r	.	8f#/L	8ff#\L	.
.	8BL 8G\	.	8e/J	8ee\J	]
.	8B 8G\	]	4r	4r	.
.	8BJ 8G\	.	.	.	.
!LO:LB:g=original	!LO:LB:g=original	!	!	!	!
=29	=29	=29	=29	=29	=29
2G 2GG/	8r	.	4dd\	4ddd\	.
.	8gL 8d 8B\	.	.	.	.
.	8g 8d 8B\	.	8cc#X\L	8ccc#X\L	.
.	8gJ 8d 8B\	.	8b\J	8bb\J	.
2F# 2FF#/	8r	.	4.a/	4.aa\	.
.	8aL 8d 8A\	.	.	.	.
.	8a 8d 8A\	.	.	.	.
.	8aJ 8d 8A\	.	8a/	8aa\	.
=30	=30	=30	=30	=30	=30
*	*^	*	*^	*	*
2E 2EE/	(8d/L	2A\	<	8a/L	2g\	8aa\L	<
.	8c#X/	.	.	8a/	.	8aa\	.
.	8B/	.	.	8b/	.	8bb\	.
.	8A/J)	.	[	8cc#X/J	.	8ccc#X\J	[
2D 2DD/	8r	2ryy	>	4dd\	4ryy	4ddd\	>
.	8f#L 8d 8A\	.	.	.	.	.	.
.	8f# 8d 8A\	.	.	4r	4ryy	8dd\	]
.	8f#J 8d 8A\	.	]]	.	.	8r	.
*	*v	*v	*	*	*	*	*
=31	=31	=31	=31	=31	=31	=31
*	*	*	*	*	*^	*
4BB-X 4BBB-X/	4d 4B-X 4Fn\	.	4dd 4fn/	4ryy	4ddd 4ffn\	4ryy	.
4D 4DD/	4B- 4F\	.	8b-X/L	4f\	8bb-X/L	4ff\	.
.	.	.	8dd/J	.	8ddd/J	.	.
2FFn 2FFFn/	2fn 2c 2A 2F\	.	4.ffn 4.cc 4.a\	4.ryy	4.fffn 4.ccc 4.aa\	4.ryy	.
.	.	.	8ff\	8ryy	8fff\	8ryy	.
*	*	*	*v	*v	*	*	*
=32	=32	=32	=32	=32	=32	=32
4GG 4GGG/	4d 4B-X\	.	8b-X/L	8bb-X/L	4dd\	.
.	.	.	8b-/	8bb-/	.	.
4BB-X 4BBB-X/	4B- 4G\	.	8g/	8gg/	4r	.
.	.	.	8b-/J	8bb-/J	.	.
2D 2DD/	2d 2A\	.	4dd 4a/	4ddd 4aa 4ff#X\	2ryy	.
.	.	.	4r	4dd\	.	.
*	*	*	*	*v	*v	*
!	!	!	!LO:LB:g=original	!LO:LB:g=original	!
=33	=33	=33	=33	=33	=33
4GG 4GGG/	4d 4B-X 4G\	.	4g/	4gg\	.
4GG 4GGG/	4d 4B- 4G\	.	8g/L	8gg\L	.
.	.	.	8g/J	8gg\J	.
2D 2DD/	2d 2A 2Fn\	.	4.fn/	4.ffn\	.
.	.	.	8f/	8ff\	.
=34	=34	=34	=34	=34	=34
*	*^	*	*	*	*
2BB-X 2BBB-X/	4d/	2G#X 2D\	.	8fn/L	8ffn\L	.
.	.	.	.	8f/	8ff\	.
.	4r	.	.	8e/	8ee\	.
.	.	.	.	8d/J	8dd\J	.
*	*v	*v	*	*	*	*
2AA 2AAA;/	2c#X 2A 2E;\	.	4a;/	4aa;\	.
.	.	.	4r	4a/	.
*	*clefG2	*	*	*	*
!LO:LB:g=original	!LO:LB:g=original	!	!	!	!
=35	=35	=35	=35	=35	=35
*	*	*	*^	*^	*
!	!	!LO:DY:t=f più vivo ed energico	!	!	!	!	!LO:DY:t=f più vivo ed energico
4D 4DD/	4f#X 4d 4A/	f	4r	4ryy	4dd\	2ryy	f
4D 4DD/	4g 4d 4B/	.	8.ddL 8.b\	8.ryy	8.bbL 8.gg\	.	.
.	.	.	16ddJk 16b\	16ryy	16bbJk 16gg\	.	.
2D 2DD/	2f# 2d 2A/	.	4dd/	2a\	4aa/	2ff#\	.
.	.	.	4dd/	.	4ddd/	.	.
=36	=36	=36	=36	=36	=36	=36	=36
4D 4DD/	4f# 4d 4A/	.	4r	4ryy	8.dd\L	2ryy	.
.	.	.	.	.	16dd\Jk	.	.
4D 4DD/	4g 4d 4B/	.	8.ddL 8.b\	8.ryy	8bbL 8gg\	.	.
.	.	.	.	.	8bbJ 8gg\	.	.
.	.	.	16ddJk 16b\	16ryy	.	.	.
2D 2DD/	2f# 2d 2A/	.	4dd/	2a\	4aa/	2ff#\	.
.	.	.	4dd/	.	4ddd/	.	.
*	*	*	*v	*v	*	*	*
=37	=37	=37	=37	=37	=37	=37
4D 4DD/	4f# 4d 4A/	.	4dd 4a\	4ddd 4aa 4ff#\	4ryy	.
4BB 4BBB/	4f# 4d#X 4A/	.	4dd#X 4b 4a\	8.ddd#X/L	4aa 4ff#\	.
.	.	.	.	16ddd#/Jk	.	.
4E 4EE/	4g 4e 4B 4G^/	.	4ee 4b 4g\	4eee 4bb 4gg^<\	2ryy	.
4r	8e/L	.	4r	8ee\L	.	.
.	16r	.	.	16r	.	.
.	16e/Jk	.	.	16ee\Jk	.	.
*	*	*	*	*v	*v	*
=38	=38	=38	=38	=38	=38
4C 4CC/	4g 4e 4c 4G/	.	4ee 4cc 4g\	4eee 4ccc 4gg^<\	.
4r	8e/L	.	4r	8ee\L	.
.	16r	.	.	16r	.
.	16e/Jk	.	.	16ee\Jk	.
2AA 2AAA/	2f# 2e 2c 2A/	.	4ee 4cc 4a^\	4eee 4ff#\	.
.	.	.	4r	8ee\	.
.	.	.	.	8r	.
!	!	!	!LO:LB:g=original	!LO:LB:g=original	!
=39	=39	=39	=39	=39	=39
*	*	*	*	*^	*
4BB 4BBB/	4g 4e 4B/	ff	4b/	4bb 4gg 4ee\	4ryy	ff
4BB 4BBB/	4f# 4d#X 4B 4A/	.	4b 4a/	8.bb/L	4ff# 4dd#X\	.
.	.	.	.	16bb/Jk	.	.
!	!LO:TX:b:i:t=ritard	!	!	!LO:TX:b:i:t=rall.	!	!
(8EE/L	2e 2B 2G/	.	2b 2g/	2ee/	2ee\	.
8BB/	.	.	.	.	.	.
8E/	.	.	.	.	.	.
8BB/J)	.	.	.	.	.	.
*	*clefF4	*	*	*	*	*
*	*	*	*	*v	*v	*
!LO:LB:g=original	!LO:LB:g=original	!	!	!	!
=40	=40	=40	=40	=40	=40
!	!LO:TX:a:B:t=Tempo I.	!	!	!LO:TX:a:B:t=Tempo I.	!
(8BBB/L	2f# 2B 2A\	f	2b 2a/	4ff#\	mf
8BB/	.	.	.	.	.
8D#X/	.	.	.	8gg\L	.
8BB/J)	.	.	.	8ff#\J	.
(8EE/L	2e 2B 2G\	.	2b 2g/	4ee\	.
8BB/	.	.	.	.	.
8E/	.	.	.	4bb\	.
8BB/J)	.	.	.	.	.
=41	=41	=41	=41	=41	=41
*	*	*	*	*^	*
(8BBB/L	2f# 2B 2A\	.	2b 2a/	8ff#\L	2ryy	.
8BB/	.	.	.	16gg\L	.	.
.	.	.	.	16aa\JJ	.	.
8D#X/	.	.	.	8gg\L	.	.
8BB/J)	.	.	.	8ff#\J	.	.
(8EE/L	2e 2B 2G\	.	4.b 4.g/	(4ee/	4.ee\	.
8BB/	.	.	.	.	.	.
8E/	.	.	.	8eee/)	.	.
8BB/J)	.	.	8r	8r	8ryy	.
*	*	*	*	*v	*v	*
=42	=42	=42	=42	=42	=42
8EL 8EE/	8eL 8B 8G\	.	8bL 8g/	8eeeL 8ee\	.
8D 8DD/	8e 8B 8G#X\	.	8b 8g#X/	8fffn 8ffn\	.
8C 8CC/	8e 8A 8E\	.	8a/	8eee 8ee\	.
8BBJ 8BBB/	8dJ 8G# 8E\	.	8b/J	8dddJ 8dd\	.
4AA 4BBB/	4c 4A 4E\	.	4r	4ccc 4cc\	.
4FFn 4FFFn/	4fn 4c 4A 4Fn\	.	4cc 4a/	4ccc 4aa 4ff\	.
=43	=43	=43	=43	=43	=43
8DD 8DDD/	8BL 8A 8Fn\	.	8bL 8a 8fn\	8bbL 8aa 8ffn\	.
8r	8fn\J	.	8ffn\J	8fffn\J	.
4EE 4EEE/	4e 4B 4G#X 4E\	.	8eeL 8b 8g#X\	8eeeL 8bb 8gg#X\	.
.	.	.	8ddJ 8b\	8gg#J 8ee\	.
2AA 2AAA;/	2e 2c 2A 2E;\	.	2cc 2a;/	2aa 2ee;\	.
!	!	!	!LO:LB:g=original	!LO:LB:g=original	!
=44	=44	=44	=44	=44	=44
(8qqAAA/	.	.	.	.	.
*	*	*	*	*rscale:2	*
*	*	*	*	*cue	*
*	*	*	*	*Xtuplet	*
2AAA;/)	2AA;/	.	4ra>	(40A</LL	.
.	.	.	.	40c</	.
.	.	.	.	40e</	.
.	.	.	.	40a</JJ	.
.	.	.	.	40cc\LL	.
.	.	.	.	40ee\	.
.	.	.	.	40aa\	.
.	.	.	.	40ccc\	.
*	*	*	*	*8va	*
.	.	.	.	40eee\	.
.	.	.	.	40aaa\JJ	.
*	*	*	*	*Xcue	*
*	*	*	*	*rscale:1	*
.	.	.	4r;	4cccc;\)	.
(8qqBBB/	.	.	.	.	.
*	*	*	*	*X8va	*
*	*	*	*clefF4	*rscale:2	*
*	*	*	*	*cue	*
2BBB;/)	2BB;/	.	4rb>	(60D#X<\LL	.
.	.	.	.	60F#X<\	.
.	.	.	.	60A<\	.
.	.	.	.	60B<\JJ	.
*	*	*	*	*rscale:1	*
.	.	.	.	60d#X\LL	.
.	.	.	.	60f#X\	.
.	.	.	.	60a\	.
.	.	.	.	60b\	.
.	.	.	.	60dd#X\	.
.	.	.	.	60ff#\	.
.	.	.	.	60aa\	.
.	.	.	.	60bb\	.
*	*	*	*	*8va	*
.	.	.	.	60ddd#X\	.
.	.	.	.	60fff#\	.
.	.	.	.	60aaa\JJ	.
*	*	*	*	*Xcue	*
.	.	.	4r;	4bbb;\)	.
*	*	*	*clefG2	*X8va	*
!LO:LB:g=original	!LO:LB:g=original	!	!	!	!
=45	=45	=45	=45	=45	=45
*	*	*	*^	*^	*
*	*	*	*	*	*8va	*	*
(8BBB/L	2f# 2B 2A\	.	4ff# 4b 4a\	4ryy	4fff# 4bb 4aa\	4ryy	.
8BB/	.	.	.	.	.	.	.
8D#X/	.	.	8gg/L	4b 4a\	8ggg/L	4bb 4aa\	.
8BB/J)	.	.	8ff#/J	.	8fff#/J	.	.
(8EE/L	2e 2B 2G\	.	4ee 4b 4g\	4ryy	4eee 4bb 4gg\	4ryy	.
8BB/	.	.	.	.	.	.	.
8E/	.	.	4b\	4ryy	4bbb 4bb\	4ryy	.
8BB/J)	.	.	.	.	.	.	.
=46	=46	=46	=46	=46	=46	=46	=46
(8BBB/L	2f# 2B 2A\	.	8ff#/L	2b 2a\	8fff#/L	2bb 2aa\	.
8BB/	.	.	16gg/L	.	16ggg/L	.	.
.	.	.	16aa/JJ	.	16aaa/JJ	.	.
8D#X/	.	.	8gg/L	.	8ggg/L	.	.
8BB/J)	.	.	8ff#/J	.	8fff#/J	.	.
(8EE/L	2e 2B 2G\	.	4ee 4b 4g\	4ryy	4eee 4bb 4gg\	4ryy	.
8BB/	.	.	.	.	.	.	.
8E/	.	.	4ee\	4ryy	4eeee 4eee\	4ryy	.
8BB/J)	.	.	.	.	.	.	.
*	*	*	*	*	*X8va	*	*
*	*	*	*v	*v	*	*	*
*	*	*	*	*v	*v	*
=47	=47	=47	=47	=47	=47
8EL 8EE/	8eL 8B 8G\	.	8bL 8g/	8eeeL 8ee\	.
8D 8DD/	8fn 8B 8G#X\	.	8b 8g#X/	8fffn 8ffn\	.
8C 8CC/	8e 8A 8E\	.	8a/	8eee 8ee\	.
8BBJ 8BBB/	8dJ 8G# 8E\	.	8bJ 8g#/	8dddJ 8dd\	.
4AA 4AAA/	4c 4A 4E\	.	4cc 4a 4e/	4ccc 4aa 4ee\	.
4FF#X 4FFF#X/	4c 4A\	.	4cc 4a 4d#X/	4ccc 4aa 4dd#X\	.
=48	=48	=48	=48	=48	=48
8GGL 8GGG/	8eL 8B\	.	8eeL 8b\	8bb\L	.
8C 8CC/	8e 8G\	.	8ee 8cc\	8eee 8gg\	.
8AA 8AAA/	8f# 8e 8c\	.	8cc\	8ff# 8ee\	.
8BBJ 8BBB/	8f#J 8d#X 8B 8A\	.	8bJ 8a\	8bbJ 8ff# 8dd#X\	.
2EE 2EEE;/	2e 2B 2G;\	.	2b 2g;/	2ee;\	.
==	==	==	==	==	==
*-	*-	*-	*-	*-	*-
!!!system-decoration: {(p1)}{(p2)}
!!!RDF**kern: > = above
!!!RDF**kern: < = below
!!!ENC: Berenika Jozajtis
!!!END: 2022-08-15
!!!ENC: Andrzej Kubiczek
!!!END: 2022-09-15!!!YEC: Copyright 2022 Narodowy Instytut Fryderyka Chopina (https://polishscores.org)
!!!YEM: License CC-BY-4.0 (https://creativecommons.org/licenses/by/4.0)
